X: 1
T: South Inch House
C: Alistair Wilkie
R: strathspey
Z: 2014 John Chambers <jc:trillian.mit.edu>
S: PDF image of set for Monymusk from George Meikle 2012
M: C
L: 1/8
K: D
f>e |\
"D"d>A F<A "Bm"D2 B>A | "Em"G>E C<E "A7"A,2 C<E |\
"D"D>F A>F "G"G>B d>B |[1 "D"A>d A<F "D"A2 :|[2 "D"A>d "A7"c<e "D"d2 |]
f>g |\
"D"a>g f>e "B7"^d2 B2 | "Em"g>f e>d "A"c2 d>e |\
"Bm"f<B B>c B>A F>E | "Bm"F>B "F#m"(3cBA "G"B2 |]
"A7"f>e |\
"D"d>A F<A "Bm"D2 B>A | "Em"G>E C<E "A7"A,2 C<E |\
"D"D>F A>F "G"G>B d>B | "D"A>d "A7"c<e "D"d2 |]
